src/images/logo.svg

<svg xmlns="http://www.w3.org/2000/svg" width="500" height="445" viewBox="0 0 500 445">
  <path fill="#1E252D" d="M298.951217,357.467107 C336.782978,347.387471 348.312657,335.147912 348.672959,297.709262 L349.033262,47.5182861 C349.033262,41.7584939 343.268422,39.2385848 343.268422,39.2385848 C303.63515,146.154729 260.03855,257.03073 220.044975,363.946873 C220.044975,363.946873 123.844213,145.074768 78.8064034,37.4386497 C78.8064034,37.4386497 72.6812613,39.9585588 72.6812613,46.4383251 L72.6812613,216.352197 C72.6812613,263.870483 86.012453,303.469055 119.160281,338.747782 C140.77843,361.786951 141.859337,393.105822 124.204516,416.144991 C103.306972,443.144017 68.3576316,452.143692 38.8128284,437.744212 C9.62832769,423.704718 -5.86467886,395.265744 2.06197565,365.386821 C4.94439547,354.947198 11.0695376,344.147588 18.6358896,336.227873 C51.4234151,302.749081 63.3133969,262.070548 63.3133969,216.712184 L63.3133969,40.3185458 C63.3133969,14.0394936 53.9455325,8.63968839 27.6434516,2.87989613 L25.4816367,0 L151.587504,0 C169.96293,0.719974032 184.735332,13.6795066 192.661986,30.2389094 L273.730044,203.752651 L338.58449,36.7186757 C350.114169,6.83975331 360.202639,0 392.629862,0 L499.639698,0 L497.11758,2.87989613 C466.49187,2.87989613 460.006425,9.71964944 459.28582,45.7183511 L458.565215,301.309133 C458.565215,325.068276 452.07977,343.787601 426.498295,353.50725 L497.477883,353.50725 L500,357.467107 L298.951217,357.467107 Z"/>
</svg>

<svg xmlns="http://www.w3.org/2000/svg" width="500" height="445"><path fill="#1E252D" d="M298.951 357.467c37.832-10.08 49.362-22.32 49.722-59.758l.36-250.19c0-5.76-5.765-8.28-5.765-8.28-39.633 106.916-83.23 217.792-123.223 324.708 0 0-96.2-218.872-141.239-326.508 0 0-6.125 2.52-6.125 9v169.913c0 47.518 13.331 87.117 46.48 122.396 21.617 23.039 22.698 54.358 5.044 77.397-20.898 26.999-55.847 35.999-85.392 21.6-29.185-14.04-44.678-42.48-36.751-72.358 2.882-10.44 9.008-21.24 16.574-29.16 32.787-33.478 44.677-74.156 44.677-119.515V40.32c0-26.28-9.367-31.68-35.67-37.44L25.482 0h126.106c18.375.72 33.147 13.68 41.074 30.239l81.068 173.514 64.854-167.034C350.114 6.839 360.203 0 392.63 0h107.01l-2.522 2.88c-30.626 0-37.112 6.84-37.832 42.838l-.72 255.591c0 23.76-6.486 42.479-32.068 52.198h70.98l2.522 3.96H298.951z"/></svg>
